!!!!SEGMENT: 065-1-BH-002-violino.krn
!!!COM: Chopin, Fryderyk
!!!OTL: Sonata
!!!OPS: Op. 65
!!!PTL: Sonate pour Piano et Violoncelle
!!!PPR: Breitkopf & Härtel
!!!OMV: 2
!!!PPP: Leipzig
!!!NIFC-rismID: PL-Wbfc 4692/n
!!!NIFC-shelfmark: PL-Wbfc 4692/n
!!!system-decoration: {(s1)}
**kern	**fing	**dynam
*part1	*part1	*part1
*I"SCHERZO.	*	*
*staff1	*	*
*clefG2	*	*
*k[b-]	*	*
*M3/4	*	*
*>[A,B,C,C1,C,C2,D,E]	*	*
*>A	*	*
4a	.	f
=1	=1	=1
4a'<	.	.
(<8aL	.	.
8b-J)	.	.
(<8b-L	.	.
8aJ)	.	.
=2	=2	=2
(>8aL	.	.
8dd	.	.
8cc#X	.	.
8ddJ	.	.
4ee^>)	.	sf
=3	=3	=3
4ff'>	.	.
(<8aL	.	[
8b-J)	.	.
(<8b-L	.	.
8aJ)	.	.
=4	=4	=4
(<8aL	.	.
8f	.	.
8e	.	.
8dJ	.	.
4e)	.	.
=5	=5	=5
4A'<	.	.
4r	.	.
(<4e	.	p
=6	=6	=6
4f)	.	.
(<2d	.	.
=7	=7	=7
4a)	.	.
(<2e	.	.
!!LO:LB:g=original
=8	=8	=8
4f)	.	.
2d	.	.
=9	=9	=9
2.a	.	.
=10	=10	=10
(>2e	.	.
4cc#X)	.	.
=11	=11	=11
2.cc#X	.	.
=12	=12	=12
!LO:TX:a:t=P:'1' in the middle of the bar:problem	!	!
!LO:TX:a:B:t=1	!	!
2.r	.	.
=13	=13	=13
8a	.	.
8r	.	.
(>8b-XL	.	.
8a	.	.
8cc	.	.
8b-J	.	.
=14	=14	=14
8g)	.	.
8r	.	.
(<8aL	.	.
8g	.	.
8b-	.	.
8aJ	.	.
=15	=15	=15
8f)	.	.
8r	.	.
(<8gL	.	.
8f	.	.
8a	.	.
8gJ	.	.
=16	=16	=16
8e)	.	.
8r	.	.
(<8fL	.	<
8e	.	.
8g	.	.
8fJ	.	[[
!!LO:LB:g=original
=17	=17	=17
8d)	.	.
8r	.	.
4r	.	.
4r	.	.
=18	=18	=18
4r	.	.
4r	.	.
!	!	!LO:DY:rj
4a 4e 4A	.	f
=19	=19	=19
4a 4f 4d	.	.
4r	.	.
4r	.	.
=20	=20	=20
4r	.	.
4r	.	.
(>4e	.	.
=21	=21	=21
4cc)	.	.
(<8aL	.	.
8b-)	.	.
(<8b-	.	.
8aJ	.	.
=22	=22	=22
4g)	.	.
(<8gL	.	.
8a)	.	.
(<8a	.	.
8gJ	.	.
=23	=23	=23
4f)	.	.
(<8fL	.	.
8g)	.	.
(<8g	.	.
8fJ	.	.
=24	=24	=24
4e)	.	.
(<8eL	.	.
8f)	.	.
(<8f	.	.
8eJ	.	.
=25	=25	=25
2.d)	.	.
=26	=26	=26
(>2cc	.	<
4b-)	.	.
!!LO:LB:g=original
=27	=27	=27
2.aa-X	.	[[
=28	=28	=28
!LO:TX:a:t=P:'1' in the middle of the bar:problem	!	!
!LO:TX:a:B:t=1	!	!
2.r	.	.
=29	=29	=29
!LO:TX:a:B:t=4ta.-o:dur=6hq:ext=ud:problem:text with extention lines	!	!
(<2.f^<	.	.
=30	=30	=30
4B-X	.	.
4e-X	.	.
4d)	.	.
=31	=31	=31
2.c#X	.	.
=32	=32	=32
(>2.d	.	.
=33	=33	=33
4dd)	.	.
(<8dL	.	.
8e)	.	.
(<8e	.	.
8dJ)	.	.
=34	=34	=34
(<8dL	.	.
8g	.	.
8f#X	.	.
8gJ	.	.
4a)	.	sf
=35	=35	=35
4b-/	.	.
(<8dL	.	.
8e-i)	.	.
(<8e-	.	.
8dJ)	.	.
=36	=36	=36
(<8ddL	.	.
8b-	.	.
8a	.	.
8gJ)	.	.
4b- 4d 4G	.	.
!!LO:LB:g=original
=37	=37	=37
4e-X	.	.
4r	.	.
4r	.	.
=38	=38	=38
4r	.	.
4r	.	.
4e-X	.	.
=39	=39	=39
4cc 4e-X 4A-X	.	.
4r	.	.
4r	.	.
=40	=40	=40
4r	.	.
4r	.	.
4g#X	.	p
=41	=41	=41
!LO:TX:b:Bi:t=dolce	!	!
(>4a#X	.	.
4ff#X)	.	.
4ff#	.	.
=42	=42	=42
(>4ff#X	.	.
2cc#X)	.	.
=43	=43	=43
(>4dd#X	.	.
4gg#X	.	.
4ff#X)	.	.
=44	=44	=44
(>4ff#X	.	.
2cc#X)	.	.
=45	=45	=45
2.dd#X	.	.
=46	=46	=46
(>2ff#X	.	.
4ddd#X)	.	.
=47	=47	=47
2.ddd#X	.	.
=48	=48	=48
!LO:TX:a:t=P:'1' in the middle of the bar:problem	!	!
!LO:TX:a:B:t=1	!	!
2.r	.	.
!!LO:LB:g=original
=49	=49	=49
8b	.	.
8r	.	.
(>8ccL	.	.
8b	.	.
8dd	.	.
8ccJ	.	.
=50	=50	=50
8a)	.	.
8r	.	.
(>8bL	.	.
8a	.	.
8cc	.	.
8bJ	.	.
=51	=51	=51
8g)	.	.
8r	.	.
(<8aL	.	.
8g	.	.
8b	.	.
8aJ	.	.
=52	=52	=52
8f#X)	.	.
(<8r	.	.
8gL	.	.
8f#	.	.
8a	.	.
8gJ	.	.
=53	=53	=53
8e)	.	.
8r	.	.
4r	.	.
4r	.	.
=54	=54	=54
!	!	!LO:HP:a
2.g#X 2.B	.	<
=55	=55	=55
2.a 2.c	.	.
.	.	.
=56	=56	=56
2.b 2.d	.	[ <
=57	=57	=57
4cc 4e-X	.	.
(<8aL	.	.
8b)	.	.
(<8b	.	.
8aJ)	.	.
!!LO:LB:g=original
=58	=58	=58
(<8dL	.	.
8a	.	.
8g#X	.	.
8aJ	.	.
4dd	.	.
=59	=59	=59
4gn)	.	.
(<8gL	.	.
8a)	.	.
(<8a	.	.
8gJ)	.	.
=60	=60	=60
(<8GL	.	.
8c	.	.
8e	.	.
8fJ	.	.
4g	.	.
=61	=61	=61
4a-X)	.	sf
(<8a-L	.	p
8b-J)	.	.
(<8b-L	.	.
8a-J)	.	.
=62	=62	=62
(<4a-X	.	.
2e-X	.	.
=63	=63	=63
4f)	.	.
(<8a-XL	.	.
8b-J)	.	.
(<8b-L	.	.
8a-J)	.	.
=64	=64	=64
(<4a-X	.	.
8e-XL	.	.
8g-X	.	.
8f	.	.
8e-J	.	.
=65	=65	=65
4f)	.	.
(<8A-XL	.	.
8B-XJ)	.	.
!	!	!LO:DY:a
!	!	!LO:HP:a
(<8B-L	.	f >
8A-J)	.	.
!!LO:LB:g=original
=66	=66	=66
2A-X	.	]
4a-	.	.
=67	=67	=67
2A-X	.	.
4a-X	.	.
=68	=68	=68
4A-X	.	.
4a-	.	.
8A-L	.	.
8B-J	.	.
=69	=69	=69
4c-X	.	.
2a-X 2Bn	.	.
=70	=70	=70
4g 4cn	.	.
2f#X 2An	.	.
=71	=71	=71
4g 4B-X	.	.
2e 2c#X	.	.
=72	=72	=72
4f 4d	.	.
2f 2d	.	.
=73	=73	=73
4A	.	.
8a 8e 8A	.	.
8r	.	.
8r	.	.
8e 8A	.	.
=74	=74	=74
*^	*	*
(>4f	2A	.	.
4d)	.	.	.
4a 4d 4A	4ryy	.	.
*v	*v	*	*
=75	=75	=75
4cc#X 4e 4A	.	.
8a 8e 8A	.	.
8r	.	.
8r	.	.
8e 8A	.	.
!!LO:LB:g=original
=76	=76	=76
*^	*	*
(>4f	2A	.	.
4d)	.	.	.
4a 4d 4A	4ryy	.	.
*v	*v	*	*
=77	=77	=77
2.ff	.	.
=78	=78	=78
(>2ee	.	.
4dd)	.	.
=79	=79	=79
(>4cc#X	.	>
4cc	.	.
4b-X)	.	.
=80	=80	=80
(<4e	.	.
4f	.	.
4d)	.	.
=81	=81	=81
4A	.	.
!	!	!LO:DY:a:rj
(<8AL	.	p
8B-J)	.	.
(<8B-L	.	.
8AJ)	.	.
=82	=82	=82
!LO:TX:a:t=P:in the designation of three break bars, a vertical and horizontal line:problem	!	!
2.r	.	.
=83	=83	=83
2.r	.	.
=84	=84	=84
2.r	.	.
=85	=85	=85
4A'<	.	.
(<8AL	.	.
8B-J)	.	.
(<8B-^<L	.	.
8AJ)	.	.
=86	=86	=86
!LO:TX:a:t=P:in the designation of three break bars, a vertical and horizontal line:problem	!	!
2.r	.	.
=87	=87	=87
2.r	.	.
=88	=88	=88
2.r	.	.
=89	=89	=89
4a	.	f
(<8aL	.	.
8b-)	.	.
(<8b-	.	.
8aJ)	.	.
=90	=90	=90
(>8a\L	.	.
8dd	.	.
8cc#X	.	.
8ddJ	.	.
4ee)^<	.	sf
!!LO:LB:g=original
=91	=91	=91
4ff	.	.
(<8aL	.	.
8b-)	.	.
(<8b-	.	.
8aJ)	.	.
=92	=92	=92
(<8aL	.	.
8f	.	.
8e	.	.
8dJ	.	.
4e)	.	.
=93	=93	=93
4A	.	.
4r	.	.
(<4e	.	p
=94	=94	=94
4f)	.	.
(<2d	.	.
=95	=95	=95
4a)	.	.
(<2e	.	.
=96	=96	=96
4f)	.	.
2d	.	.
=97	=97	=97
2.a	.	<
=98	=98	=98
(>2e	.	.
4cc#X)	.	[
=99	=99	=99
2.cc#X	.	.
=100	=100	=100
!LO:TX:a:t=P:'1' in the middle of the bar:problem	!	!
!LO:TX:a:B:t=1	!	!
2.r	.	.
=101	=101	=101
8a	.	.
8r	.	.
(>8b-XL	.	.
8a	.	.
8cc	.	.
8b-J	.	.
!!LO:LB:g=original
=102	=102	=102
8g)	.	.
8r	.	.
(<8aL	.	.
8g	.	.
8b-	.	.
8aJ	.	.
=103	=103	=103
8f)	.	.
8r	.	.
(<8gL	.	.
8f	.	.
8a	.	.
8gJ	.	.
=104	=104	=104
8e)	.	.
8r	.	.
(<8fL	.	<
8e	.	.
8g	.	.
8fJ	.	.
=105	=105	=105
8d)	.	[
8r	.	.
4r	.	.
4r	.	.
=106	=106	=106
4r	.	.
4r	.	.
!	!	!LO:DY:rj
4a'< 4e 4A	.	f
=107	=107	=107
4a'< 4f 4d	.	.
4r	.	.
4r	.	.
=108	=108	=108
4r	.	.
4r	.	.
(>4e	.	.
=109	=109	=109
4cc)	.	.
(<8aL	.	.
8b-)	.	.
(<8b-	.	.
8aJ	.	.
=110	=110	=110
4g)	.	.
(<8gL	.	.
8a)	.	.
(<8a	.	.
8gJ	.	.
!!LO:LB:g=original
=111	=111	=111
4f)	.	.
(<8fL	.	.
8g)	.	.
(<8g	.	.
8fJ	.	.
=112	=112	=112
4e)	.	.
(<8eL	.	.
8f)	.	.
(<8f	.	.
8eJ	.	.
=113	=113	=113
2.d)	.	.
=114	=114	=114
(>2cc	.	<
4b-)	.	.
=115	=115	=115
2.aa-X	.	[
=116	=116	=116
!LO:TX:a:t=P:'1' in the middle of the bar:problem	!	!
!LO:TX:a:B:t=1	!	!
2.r	.	.
=117	=117	=117
!LO:TX:a:B:t=4ta.:dur=8wq:ext=ud:problem:text with extention lines	!	!
(<2.f^<	.	.
=118	=118	=118
4B-X	.	.
4e-X	.	.
4d)	.	.
=119	=119	=119
(<2.c#X	.	.
=120	=120	=120
2.d#X)	.	<
=121	=121	=121
2.e	.	[
=122	=122	=122
(<4B-	.	.
4e	.	.
4d#X)	.	.
=123	=123	=123
2.e	.	<
!!LO:LB:g=original
=124	=124	=124
2.f	.	[[
=125	=125	=125
2.f#X	.	.
=126	=126	=126
(<4Bn	.	.
4f#X	.	.
4e#X)	.	<
=127	=127	=127
2.f#X	.	[[
=128	=128	=128
2.g	.	<
=129	=129	=129
2.g#X	.	.
=130	=130	=130
(>2.a	.	.
=131	=131	=131
4ccc#X)	.	f
4bb	.	.
4aa	.	.
=132	=132	=132
(>4gg	.	.
4dd	.	.
4ee)	.	.
*kcancel	*	*
=133||	=133||	=133||
*>B	*	*
*k[f#c#]	*	*
!LO:TX:a:B:t=Cantabile.	!	!
2.ff#	.	.
=134	=134	=134
2.gg#X	.	.
=135	=135	=135
(>4bb	.	.
4aa	.	.
4gg#X)	.	.
=136	=136	=136
2bb	.	.
4aa	.	.
!!LO:LB:g=original
=137	=137	=137
(>2.ee	.	.
=138	=138	=138
2.ff#)	.	.
=139	=139	=139
(>4aa	.	.
4gg	.	.
4ff#)	.	.
=140	=140	=140
(>2aa	.	.
4gg)	.	.
=141	=141	=141
2.b	.	.
=142	=142	=142
(>2cc#	.	.
4b)	.	.
=143	=143	=143
(>4a	.	<
4b	.	.
4cc#)	.	.
=144	=144	=144
(>4dd	.	.
4ee	.	.
4ff#)	.	[
=145	=145	=145
(>4ee	.	.
4ccc#	.	.
4ddd)	.	.
=146	=146	=146
(>4ccc#	.	.
4bb	.	.
4ee	.	.
=147	=147	=147
4aa)	.	.
4ee	.	>
(>[>4aa	.	.
=148	=148	=148
4aa]	.	.
4gg	.	.
4ff#)	.	]
=149	=149	=149
(>2.gg	.	.
=150	=150	=150
2.aa#X)	.	.
!!LO:PB:g=original
=151	=151	=151
(>4ccc#	.	.
4bb	.	.
4aa#X)	.	.
=152	=152	=152
(>2ccc#	.	.
4bb)	.	.
=153	=153	=153
(>2.ff#	.	.
=154	=154	=154
2.gg#X)	.	.
=155	=155	=155
(>4bb	.	.
4aa	.	.
4gg#X)	.	.
=156	=156	=156
(>2bb	.	.
4aa)	.	.
=157	=157	=157
(>2.aa	.	<
=158	=158	=158
2.bb-X	.	.
=159	=159	=159
2.bbn)	.	[
=160	=160	=160
(>2.ccc	.	<
=161	=161	=161
2ccc#X)	.	.
(>[>4ddd	.	[
=162	=162	=162
4ddd]	.	.
4dd	.	.
4gg)	.	.
=163	=163	=163
(>2.ee	.	.
=164	=164	=164
4dd)	.	.
4r	.	.
4cc#	.	.
!!LO:LB:g=original
=165!||:	=165!||:	=165!||:
*>C	*	*
(>2cc#	.	.
4ff#)	.	.
=166	=166	=166
(>2ff#	.	.
4gg#X)	.	.
=167	=167	=167
(>4ff#	.	<
4ee#X	.	.
4ccc#)	.	[
=168	=168	=168
[>2.ccc#	.	.
=169	=169	=169
2ccc#]	.	.
(>[>4een	.	.
=170	=170	=170
4ee]	.	.
4gg#X	.	.
4ff#)	.	.
=171	=171	=171
(>4ee	.	<
4dd#X	.	.
4bb)	.	[
=172	=172	=172
(>[>2.bb	.	.
=173	=173	=173
2bb]	.	.
(>[>4ddn)	.	.
=174	=174	=174
4dd]	.	.
4ff#	.	.
4ee)	.	.
=175	=175	=175
(>4dd	.	.
4cc#	.	.
4gg)	.	.
=176	=176	=176
[>2.gg	.	.
=177	=177	=177
4gg]	.	.
4gg	.	.
4gg	.	.
=178	=178	=178
(>2gg	.	.
4ff#)	.	.
!!LO:LB:g=original
=179	=179	=179
(>2.dd#X	.	.
=180	=180	=180
2ee	.	.
4ee#X)	.	.
=181	=181	=181
(>2.ff#	.	.
=182	=182	=182
2.gg#X)	.	.
=183	=183	=183
(>4bb	.	.
4aa	.	.
4gg#X)	.	.
=184	=184	=184
(>2bb	.	.
4aa)	.	.
=185	=185	=185
(>2.ee	.	.
=186	=186	=186
2.ff#)	.	.
=187	=187	=187
(>4aa	.	.
4gg	.	.
4ff#)	.	.
=188	=188	=188
(>2aa	.	.
4gg)	.	.
=189	=189	=189
(>2.gg	.	<
=190	=190	=190
2.aa-X	.	.
=191	=191	=191
2.aan)	.	[
=192	=192	=192
(>2.bb-X	.	.
=193	=193	=193
4bbn	.	.
4.ccc#)	.	.
8ddd	.	.
!!LO:LB:g=original
=194	=194	=194
(>2dd	.	.
4gg)	.	.
=195	=195	=195
!!LO:TX:a:B:t=1
*>C1	*	*
(>[>2.ee	.	.
=196	=196	=196
4ee]	.	.
4dd	.	.
4cc#)	.	.
=197:|!	=197:|!	=197:|!
!!LO:TX:a:B:t=2
*>C2	*	*
(>2.ee	.	.
=198	=198	=198
2.ff#)	.	.
=199	=199	=199
*>D	*	*
(>2.gg	.	.
=200	=200	=200
2.gg#X	.	.
=201	=201	=201
4aa)	.	.
4r	.	.
4r	.	.
=202	=202	=202
(>2.ff#t>	.	.
16qqeeL/	.	.
16qqff#J	.	.
=203	=203	=203
2.gg	.	.
=204	=204	=204
2.gg#X	.	.
=205	=205	=205
2.aa)	.	.
=206	=206	=206
(>2.bb-X	.	.
=207	=207	=207
2.aa)	.	.
=208	=208	=208
[>2.bb-X	.	.
!!LO:LB:g=original
=209	=209	=209
8bb-]	.	.
8r	.	.
(>8aaL	.	.
8gg	.	.
8bb-X	.	.
8aaJ	.	.
=210	=210	=210
8gg)	.	.
8r	.	.
(>8ffL	.	.
8ee	.	.
8gg	.	.
8ffJ	.	.
=211	=211	=211
8ee)	.	.
8r	.	.
(>8ddL	.	.
8cc#	.	.
8ee	.	.
8ddJ	.	.
=212	=212	=212
8cc#)	.	.
8r	.	.
(>8b-X\L	.	.
8a	.	<
8cc	.	.
8b-J	.	.
*kcancel	*	*
=213||	=213||	=213||
*>E	*	*
*k[b-]	*	*
4a)	.	[ f
(<8aL	.	.
8b-J)	.	.
(<8b-L	.	.
8aJ)	.	.
=214	=214	=214
(>8aL	.	.
8dd	.	.
8cc#X	.	.
8ddJ	.	.
4ee)	.	.
=215	=215	=215
4ff	.	.
(<8aL	.	.
8b-J)	.	.
(<8b-L	.	.
8aJ)	.	.
!!LO:LB:g=original
=216	=216	=216
(<8aL	.	.
8f	.	.
8e	.	.
8dJ)	.	.
4e	.	.
=217	=217	=217
4A	.	.
4r	.	.
(<4e	.	p
=218	=218	=218
4f)	.	.
(<2d	.	.
=219	=219	=219
4a)	.	.
(<2e	.	.
=220	=220	=220
4f)	.	.
(<2d	.	.
=221	=221	=221
2.a)	.	.
=222	=222	=222
(>2e	.	.
4cc#X)	.	.
=223	=223	=223
2.cc#X	.	.
=224	=224	=224
!LO:TX:a:t=P:'1' in the middle of the bar:problem	!	!
!LO:TX:a:B:t=1	!	!
2.r	.	.
=225	=225	=225
8a	.	.
8r	.	.
(<8b-L/	.	.
8a	.	.
8cc	.	.
8b-J	.	.
=226	=226	=226
8g)	.	.
8r	.	.
(<8aL	.	.
8g	.	.
8b-	.	.
8aJ	.	.
!!LO:LB:g=original
=227	=227	=227
8f)	.	.
8r	.	.
(<8gL	.	.
8f	.	.
8a	.	.
8gJ	.	.
=228	=228	=228
8e)	.	.
8r	.	.
(<8fL	.	.
8e	.	<
8g	.	.
8fJ	.	.
=229	=229	=229
4d)	.	[
4r	.	.
4r	.	.
=230	=230	=230
4r	.	.
4r	.	.
!	!	!LO:DY:rj
4a 4e 4A	.	f
=231	=231	=231
4a 4f 4d	.	.
4r	.	.
4r	.	.
=232	=232	=232
4r	.	.
4r	.	.
(>4e	.	.
=233	=233	=233
4cc)	.	.
(<8aL	.	.
8b-)	.	.
(<8b-	.	.
8aJ	.	.
=234	=234	=234
4g)	.	.
(<8gL	.	.
8a)	.	.
(<8a	.	.
8gJ	.	.
=235	=235	=235
4f)	.	.
(<8fL	.	.
8g)	.	.
(<8g	.	.
8fJ	.	.
!!LO:LB:g=original
=236	=236	=236
4e)	.	.
(<8eL	.	.
8f)	.	.
(<8f	.	.
8eJ	.	.
=237	=237	=237
2.d)	.	.
=238	=238	=238
(>2cc	.	<
4b-)	.	.
=239	=239	=239
2.aa-X	.	[
=240	=240	=240
!LO:TX:a:t=P:'1' in the middle of the bar:problem	!	!
!LO:TX:a:B:t=1	!	!
2.r	.	.
=241	=241	=241
2.ff	.	f
=242	=242	=242
(>4b-	.	.
4ee-X	.	.
4dd)	.	.
=243	=243	=243
2.cc#X	.	.
=244	=244	=244
2.dd	.	.
=245	=245	=245
2.ccn	.	.
=246	=246	=246
(<4f#X	.	.
4b-/	.	.
4a)	.	.
=247	=247	=247
2.g	.	.
=248	=248	=248
(<4c#X	.	.
4f	.	.
4e)	.	.
!!LO:LB:g=original
=249	=249	=249
(<2.e-X	.	.
=250	=250	=250
2.d)	.	.
=251	=251	=251
(<2.B-	.	.
=252	=252	=252
!	!	!LO:HP:a:rj
2.G	.	>
=253	=253	=253
4d)	2	.
!	!	!LO:DY:a
(<8dL	.	pp
8e-XJ)	.	.
(<8e-L	.	.
8dJ)	.	.
=254	=254	=254
!	!	!LO:HP:a
(<4d	.	<
!	!	!LO:HP:a
2g	.	[ >
=255	=255	=255
4d)	.	]
(<8dL	.	.
8e-XJ)	.	.
(<8e-L	.	.
8dJ)	.	.
=256	=256	=256
!	!	!LO:HP:a
(<4d	.	<
!	!	!LO:HP:a
2g	.	[ >
=257	=257	=257
4d)	.	]
!LO:TX:a:Bi:t=smorz.	!	!
(<8dL	.	.
8e-XJ)	.	.
(<8e-L	.	.
8dJ)	.	.
=258	=258	=258
4r	.	.
(<8dL	.	.
8e-XJ)	.	.
(<8e-L	.	.
8dJ)	.	.
=259;>	=259;>	=259
4ddd 4ff# 4a 4d\	.	ff
4r	.	.
4r	.	.
==	==	==
*-	*-	*-
!!title: @{OTL}; @{OPS} @{ONM} publisher: @{PPR}
!!!RDF**kern: > = above
!!!RDF**kern: < = below
!!!RDF**kern: N = linked
!!!RDF**kern: i = editorial accidental, bracket
!!!RDF**dynam: < = "cresc.", fontstyle= "bold-italic"
!!!RDF**dynam: > = "dim.", fontstyle= "bold-italic"
!!!ENC: Wojciech Jakubiak-Danek
!!!END: 2020-04-27
!!!EED:
!!!EST:
